packages/icons/src/assets/footer.svg

<svg width="16" height="16" viewBox="0 0 16 16" fill="none" xmlns="http://www.w3.org/2000/svg"><path d="M14.7 13.9H1.3V12.65H14.7V13.9ZM13.45 2.19995C14.1404 2.19995 14.7 2.7596 14.7 3.44995V10.15C14.7 10.8403 14.1404 11.4 13.45 11.4H2.55C1.85965 11.4 1.3 10.8403 1.3 10.15V3.44995C1.3 2.7596 1.85965 2.19995 2.55 2.19995H13.45ZM2.55 10.15H13.45V3.44995H2.55V10.15Z" fill="currentColor"/></svg>

<svg xmlns="http://www.w3.org/2000/svg" width="16" height="16" viewBox="0 0 16 16"><path d="M14.7 13.9H1.3v-1.25h13.4zM13.45 2.2c.69 0 1.25.56 1.25 1.25v6.7c0 .69-.56 1.25-1.25 1.25H2.55c-.69 0-1.25-.56-1.25-1.25v-6.7c0-.69.56-1.25 1.25-1.25zm-10.9 7.95h10.9v-6.7H2.55z"/></svg>
